X: 1267
T: Bill Cooper's Merry-Go-Round Waltz
B: australian traditional tunes wiki
M:3/4
L:1/8
R: Waltz
Q: 1/4=100
K:G
V:1 
d2|"G"d2B3B|"D"A2G2A2|"G"B6|B6|B2c2d2|d2c2B2|"D"A6-|A4D2|
D2E2F2|"Em"G2F2G2|"A"A6|A4D2|"D"D2F2G2|A2c2B2|"G"G6-|G4d2||
"G"d2B2c2|d4G2|"C"c6|c6|"G"B2G2A2|B4d2|"D"A6-|A4G2|
"Em"G2E2G2|B2G2B2|"G"d6|B4d2|e2d2G2|"D"A2c2B2|"G"G6-|G4||
% abcbook-tune_id 6342d53a7ce0d9d28a6112dc


% abcbook-boost 0
% abcbook-tablature 
% abcbook-transpose 
% abcbook-lastupdated 1665324356762
% abcbook-soundfonts 
% abcbook-repeats 1
% NFF Book 2007

